X: 3905
T: The Immigrant Lass
P: Willie Wilson of Beith
C:Bobby Crowe
R:Jig (4x32)
B:RSCDS 39-5
Z:Anselm Lingnau <anselm@strathspey.org>
M:6/8
L:1/8
K:D
|:F/E/|"D"D2 d d2 f|"Em"e2 d "A7"c/d/ec|"D"d2 A "D7"FGA|"Em"Bcd "A7"efg|\
     "D"f2 d dcd|"Em"e2 d "A"cBA|
                                 "Em"BGe "A7"cBc|"D"d3 D2:|\
e|"D"f2 d def|"Em"e2 d "A"cBA|"G"B2 G DGB|"A7"A2 G "D7"FED|
  "G"B2 G GAB|"D"FAd "Bm"f2 d|"E"B2 e "E7"e2 d|"A7"cBA GFE|\
  "D"D2 d def|"Em"e2 d "A7"c/d/ec|
                                  "Bm"d2 B "G"DGB|"A7"A2 G "D7"FED|\
  "G"BGB dcB|"D"Adf "B7"a2 A|"Em"BGe "A7"cBc|"D"d3 d2|]
%%center Book39/3905-Immigrant_Lass-AL.abc

%%sep 1 1 500
%%sep 1 1 500

